frontend/public/svg/interface/bluetooth.svg

<svg width="92" height="155" viewBox="0 0 92 155" fill="none" xmlns="http://www.w3.org/2000/svg">
<g clip-path="url(#clip0)">
<path d="M6.60392 56.8277C10.8881 60.3797 15.3464 63.9324 20.231 67.6891C23.1502 69.935 26.0754 72.0791 29.172 74.3489C30.3068 75.1817 31.4549 76.0247 32.6168 76.8776C31.9739 77.338 31.3411 77.7888 30.7183 78.2304C28.8452 79.5599 27.0764 80.8161 25.3376 82.1495C19.2865 86.7924 13.2326 91.5306 7.37782 96.1131C6.60841 96.6819 5.92719 97.359 5.35562 98.1229C4.68332 99.0698 4.35431 100.214 4.42219 101.37C4.49007 102.525 4.95071 103.623 5.72931 104.486C6.47728 105.293 7.47327 105.834 8.56285 106.024C9.65236 106.215 10.7747 106.044 11.7563 105.538C12.6831 105.033 13.5488 104.425 14.337 103.727C16.5301 101.925 18.7205 100.118 20.908 98.3065C24.2508 95.5444 27.7068 92.6869 31.1249 89.9021C32.1907 89.035 33.3035 88.2548 34.5946 87.3514C34.8892 87.1445 35.1912 86.9331 35.5002 86.7146C35.5041 87.2846 35.5066 87.7276 35.4909 88.1686C35.4005 90.692 35.2892 93.2142 35.1773 95.7376C34.9403 101.112 34.6942 106.67 34.6693 112.146C34.6261 121.589 34.7902 131.187 34.9493 140.468C34.9864 142.677 35.0234 144.886 35.0596 147.095C35.0744 148.499 35.3173 149.89 35.7795 151.217C36.0494 152.014 36.5055 152.737 37.1106 153.326C37.7157 153.915 38.453 154.354 39.262 154.607C39.7449 154.754 40.247 154.828 40.7519 154.828C41.9041 154.821 43.0232 154.446 43.9441 153.76C46.4011 151.962 48.6976 150.128 50.7696 148.302C51.9642 147.251 53.1612 146.203 54.3601 145.156C58.971 141.123 63.7381 136.954 68.2269 132.639C74.9347 126.19 81.9522 119.128 89.682 111.048C91.1753 109.487 91.866 107.783 91.6774 106.119C91.481 104.404 90.3805 102.838 88.4905 101.588C86.4387 100.233 84.3837 98.8804 82.3241 97.5321C78.0182 94.7058 73.5645 91.7829 69.2305 88.8411C65.2983 86.175 61.4474 83.4583 57.3694 80.5833C55.7716 79.4562 54.1445 78.3108 52.4882 77.1461C53.8272 76.0682 55.1335 75.0215 56.4066 74.0059C59.6145 71.4416 62.6449 69.0193 65.6172 66.5218L67.8027 64.6861C74.3979 59.1457 81.219 53.4177 87.7408 47.5718C89.6643 45.848 90.5553 44.1994 90.4597 42.5222C90.3609 40.7505 89.151 39.059 86.7582 37.3501C74.1386 28.3355 59.5445 17.2565 46.9806 3.41092L46.8496 3.26715C46.4289 2.7667 45.9531 2.31439 45.4309 1.91878C43.3575 0.45828 41.1926 0.0255624 39.167 0.668261C36.672 1.46077 36.5736 3.81431 36.5016 5.53228L36.494 5.72703C36.3434 9.21158 36.272 12.9146 36.2629 17.7326C36.2472 25.7981 36.2396 33.8642 36.2405 41.9307C36.2379 48.7355 36.2325 55.5406 36.2242 62.346C36.2242 63.0464 36.1588 63.7689 36.073 64.6808C36.0564 64.857 36.0393 65.0405 36.0218 65.2318L30.5533 61.3675C24.0779 56.7927 17.8951 52.4233 11.7058 48.0658C11.4786 47.9056 11.2508 47.7416 11.0236 47.5788C9.9782 46.7733 8.85353 46.0745 7.66647 45.4926C6.76696 45.0668 5.74966 44.9517 4.77638 45.1655C3.80311 45.3792 2.93002 45.9094 2.29641 46.6718C1.6628 47.4343 1.30501 48.3851 1.28019 49.3724C1.25538 50.3597 1.56475 51.3264 2.15927 52.1191C3.4607 53.8465 4.95138 55.4257 6.60392 56.8277ZM45.7857 137.544C45.7425 126.496 45.982 115.574 46.2144 104.996C46.3558 98.5756 46.5012 91.9463 46.5804 85.3903L78.0385 107.561C69.8066 116.349 60.9513 124.16 51.5835 132.419C49.664 134.113 47.7314 135.822 45.7857 137.544ZM45.4277 14.962C56.5997 26.0299 66.8789 34.856 77.611 42.6001C75.9809 43.9711 74.3612 45.3406 72.752 46.7086C64.26 53.9074 56.2226 60.7168 47.1357 66.7643L45.4277 14.962Z" fill="black"/>
</g>
<defs>
<clipPath id="clip0">
<rect width="91" height="155" fill="white" transform="translate(0.777344)"/>
</clipPath>
</defs>
</svg>

<svg xmlns="http://www.w3.org/2000/svg" width="92" height="155" fill="none" viewBox="0 0 92 155"><g clip-path="url(#a)"><path fill="#000" d="M6.604 56.828A472 472 0 0 0 20.23 67.689c2.92 2.246 5.844 4.39 8.941 6.66l3.445 2.529q-.965.69-1.899 1.352c-1.873 1.33-3.642 2.586-5.38 3.92-6.052 4.642-12.105 9.38-17.96 13.963a9.8 9.8 0 0 0-2.022 2.01 5.09 5.09 0 0 0 .373 6.363 5.064 5.064 0 0 0 6.027 1.052 14 14 0 0 0 2.581-1.811q3.29-2.703 6.571-5.42c3.343-2.763 6.799-5.62 10.217-8.405 1.066-.867 2.178-1.647 3.47-2.55l.905-.637c.004.57.007 1.013-.01 1.454-.09 2.523-.2 5.045-.313 7.569-.237 5.374-.483 10.932-.508 16.408-.043 9.443.121 19.041.28 28.322l.11 6.627c.015 1.404.258 2.795.72 4.122a5.3 5.3 0 0 0 1.332 2.109 5.4 5.4 0 0 0 2.151 1.281c.483.147.985.221 1.49.221a5.4 5.4 0 0 0 3.192-1.068 97 97 0 0 0 6.826-5.458q1.791-1.576 3.59-3.146c4.611-4.033 9.378-8.202 13.867-12.517 6.708-6.449 13.725-13.511 21.455-21.591 1.493-1.561 2.184-3.265 1.995-4.929-.196-1.715-1.297-3.281-3.187-4.531a1837 1837 0 0 0-6.166-4.056c-4.306-2.826-8.76-5.75-13.093-8.69-3.933-2.667-7.784-5.384-11.862-8.259a4043 4043 0 0 0-4.88-3.437q2.008-1.617 3.918-3.14c3.208-2.564 6.238-4.987 9.21-7.484l2.186-1.836c6.595-5.54 13.416-11.268 19.938-17.114 1.923-1.724 2.814-3.373 2.719-5.05-.1-1.771-1.309-3.463-3.702-5.172-12.62-9.015-27.213-20.094-39.777-33.94l-.131-.143a8.8 8.8 0 0 0-1.42-1.348C43.359.459 41.194.026 39.168.669c-2.495.792-2.593 3.145-2.665 4.863l-.008.195c-.15 3.485-.222 7.188-.231 12.006q-.024 12.098-.023 24.198-.004 10.207-.016 20.415c0 .7-.065 1.423-.151 2.335l-.051.55-5.469-3.863c-6.475-4.575-12.658-8.945-18.847-13.302q-.341-.241-.682-.487a19.7 19.7 0 0 0-3.358-2.086 4.5 4.5 0 0 0-2.89-.328 4.47 4.47 0 0 0-2.48 1.507 4.39 4.39 0 0 0-.137 5.447 29.3 29.3 0 0 0 4.445 4.709m39.182 80.716c-.044-11.048.196-21.97.428-32.548.142-6.42.287-13.05.366-19.606l31.459 22.171c-8.232 8.788-17.088 16.599-26.455 24.858q-2.88 2.541-5.798 5.125m-.358-122.582C56.6 26.03 66.878 34.856 77.61 42.6q-2.445 2.056-4.859 4.109c-8.492 7.198-16.53 14.008-25.616 20.055z"/></g><defs><clipPath id="a"><path fill="#fff" d="M.777 0h91v155h-91z"/></clipPath></defs></svg>
